X:23
T:Carrick on Bannow, The
T:Kingstown Hornpipe, The
R:hornpipe
D:Sully and John Keenan: Dublin Banjos
D:The Sanctuary Sessions.
Z:id:hn-hornpipe-23
M:C|
K:G
BA|GFGB dgfg|e2ce dBGB|cBAc BAGB|ADFA dBcA|
GFGB dgfg|e2ce dBGB|cBAc BAGB|ADFA G2:|
|:ge|d^cdf afdf|abc'b agfe|defg abc'b|agfe dcBA|
GFGB dgfg|e2ce dBGB|cBAc BAGB|ADFA G2:|
